qml/icons/navigation/arrive-black.svg

<svg id="WORKING_ICONS" data-name="WORKING ICONS" xmlns="http://www.w3.org/2000/svg" width="20" height="20" viewBox="0 0 20 20">
  <title>direction</title>
  <path fill="#000000" d="M10,5a2,2,0,1,1,2-2A2,2,0,0,1,10,5Zm4.91284,8.35114L10.00916,7.0083,5.10547,13.35114a0.38659,0.38659,0,0,0,.40942.62354l2.95184-1.34375A0.35542,0.35542,0,0,1,9.00769,13H9v5.50006A0.49992,0.49992,0,0,0,9.49994,19h1.00012A0.49992,0.49992,0,0,0,11,18.50006V13.0083h0.00916a0.35757,0.35757,0,0,1,.54242-0.37738l2.95184,1.34375A0.3866,0.3866,0,0,0,14.91284,13.35114Z"/>
</svg>

<svg data-name="WORKING ICONS" xmlns="http://www.w3.org/2000/svg" width="20" height="20"><path d="M10 5a2 2 0 1 1 2-2 2 2 0 0 1-2 2Zm4.913 8.351-4.904-6.343-4.904 6.343a.387.387 0 0 0 .41.624l2.952-1.344a.355.355 0 0 1 .54.369H9v5.5a.5.5 0 0 0 .5.5h1a.5.5 0 0 0 .5-.5v-5.492h.01a.358.358 0 0 1 .542-.377l2.951 1.344a.387.387 0 0 0 .41-.624Z"/></svg>
